svg/fluentui-system-icons/ic_fluent_clear_formatting_16_regular.svg

<svg width="16" height="16" viewBox="0 0 16 16" fill="none" xmlns="http://www.w3.org/2000/svg">
<path d="M2.75 2C2.52057 2 2.32057 2.15615 2.26493 2.37873L2.01493 3.37873C1.94795 3.64663 2.11083 3.9181 2.37873 3.98507C2.64663 4.05205 2.9181 3.88917 2.98507 3.62127L3.14039 3H5.86286L4.46286 11H3.72727C3.45113 11 3.22727 11.2239 3.22727 11.5C3.22727 11.7761 3.45113 12 3.72727 12H6.02242C6.00758 11.8353 6 11.6685 6 11.5C6 11.3315 6.00758 11.1647 6.02242 11H5.47805L6.87805 3H9.85961L9.76493 3.37873C9.69795 3.64663 9.86083 3.9181 10.1287 3.98507C10.3966 4.05205 10.6681 3.88917 10.7351 3.62127L10.9851 2.62127C11.0224 2.4719 10.9889 2.31365 10.8941 2.19229C10.7993 2.07094 10.654 2 10.5 2H2.75ZM1.5 13H6.20703C6.30564 13.3486 6.43777 13.6832 6.59971 14H1.5C1.22386 14 1 13.7761 1 13.5C1 13.2239 1.22386 13 1.5 13ZM16 11.5C16 13.9853 13.9853 16 11.5 16C9.01472 16 7 13.9853 7 11.5C7 9.01472 9.01472 7 11.5 7C13.9853 7 16 9.01472 16 11.5ZM13.3536 10.3536C13.5488 10.1583 13.5488 9.84171 13.3536 9.64645C13.1583 9.45118 12.8417 9.45118 12.6464 9.64645L11.5 10.7929L10.3536 9.64645C10.1583 9.45118 9.84171 9.45118 9.64645 9.64645C9.45118 9.84171 9.45118 10.1583 9.64645 10.3536L10.7929 11.5L9.64645 12.6464C9.45118 12.8417 9.45118 13.1583 9.64645 13.3536C9.84171 13.5488 10.1583 13.5488 10.3536 13.3536L11.5 12.2071L12.6464 13.3536C12.8417 13.5488 13.1583 13.5488 13.3536 13.3536C13.5488 13.1583 13.5488 12.8417 13.3536 12.6464L12.2071 11.5L13.3536 10.3536Z" fill="#212121"/>
</svg>

<svg xmlns="http://www.w3.org/2000/svg" width="16" height="16"><path d="M2.75 2a.5.5 0 0 0-.485.379l-.25 1a.5.5 0 1 0 .97.242L3.14 3h2.723l-1.4 8h-.736a.5.5 0 0 0 0 1h2.295a5.571 5.571 0 0 1 0-1h-.544l1.4-8H9.86l-.095.379a.5.5 0 1 0 .97.242l.25-1A.5.5 0 0 0 10.5 2H2.75ZM1.5 13h4.707c.099.349.23.683.393 1H1.5a.5.5 0 0 1 0-1ZM16 11.5a4.5 4.5 0 1 1-9 0 4.5 4.5 0 0 1 9 0Zm-2.646-1.146a.5.5 0 0 0-.708-.708L11.5 10.793l-1.146-1.147a.5.5 0 0 0-.708.708l1.147 1.146-1.147 1.146a.5.5 0 0 0 .708.708l1.146-1.147 1.146 1.147a.5.5 0 0 0 .708-.708L12.207 11.5l1.147-1.146Z"/></svg>
